images/logo-16.svg

<svg height="256" viewBox="0 0 256 256" width="256" xmlns="http://www.w3.org/2000/svg"><path d="m103.3 190.8a63.4 63.4 0 0 1 -11.7-7.2l9.6 44.8a186.8 186.8 0 0 0 2.2-31.7c0-2-.1-4-.1-5.9z"/><path d="m115.1 182a48.2 48.2 0 0 0 26.8-.2 173.2 173.2 0 0 1 8.7-42.6 150.1 150.1 0 0 1 14.9-31 47 47 0 0 0 -75.2.6 152.1 152.1 0 0 1 15.4 30.7 168.5 168.5 0 0 1 9.4 42.5z"/><path d="m191.9 26.5 2.5 4.4c5.5 10.2 9.4 19.3 11.6 27.3a103.3 103.3 0 0 0 7.6-14.3 117.5 117.5 0 0 0 -21.7-17.4z"/><path d="m59.9 31.9c.8-1.4 1.5-2.9 2.3-4.2a117.6 117.6 0 0 0 -21 17.5 110.5 110.5 0 0 0 7.6 13.9c2.1-8 5.8-17 11.1-27.2z"/><path d="m83.4 16.6c-7.4 10.9-24 38.9-24.3 56.1 2.5 2.8 5.1 5.6 8 8.3a150.5 150.5 0 0 1 15.7 17.3 59.5 59.5 0 0 1 90-.7 182.4 182.4 0 0 1 15.5-17.6c2.7-2.6 5.2-5.3 7.6-8-.3-17.2-17.7-45.4-25.3-56.2a120.1 120.1 0 0 0 -87.2.8z"/><path d="m147.7 246.4a206 206 0 0 1 -6.3-49.7v-2a59.2 59.2 0 0 1 -25.6.2v2a204 204 0 0 1 -5.5 49.8 129.4 129.4 0 0 0 17.7 1.3 127.7 127.7 0 0 0 19.7-1.6z"/><path d="m155 175.4a47 47 0 0 0 15-17.2v-.3a6.1 6.1 0 0 1 1.4-2.9 47.9 47.9 0 0 0 3.7-18.6 45 45 0 0 0 -1.9-12.8l-2.2-.4a155.4 155.4 0 0 0 -8.8 20 154 154 0 0 0 -7.2 32.2z"/><path d="m15.8 109c10 4.6 26.9 8.7 53.3 5.1-2.5-1.1-5.2-2.3-8.4-3.4-10.5-3.8-26.8-7.6-48.9-7.1a1.7 1.7 0 0 0 -1.6 1.3 1.5 1.5 0 0 0 .8 1.6 43 43 0 0 0 4.8 2.5z"/><path d="m186.4 113.2c17.2 2 37.1 1.7 53.2-5.9a40.3 40.3 0 0 0 5.1-2.8 1.5 1.5 0 0 0 .7-1.5 1.6 1.6 0 0 0 -1.5-1.2c-27.5-.3-46.3 5.9-57.5 11.4z"/><path d="m153.8 196.7a189.8 189.8 0 0 0 2.7 31.5l8.7-45a63.6 63.6 0 0 1 -11.3 7.2c-.1 2.1-.1 4.2-.1 6.3z"/><path d="m101.9 175.8a154.1 154.1 0 0 0 -7.9-32.3 153.1 153.1 0 0 0 -9.1-19.7l-2.1.4a46.4 46.4 0 0 0 -1.7 13 47 47 0 0 0 20.8 38.6z"/><path d="m68.7 100.7a147 147 0 0 0 -10.2-10.8 126.8 126.8 0 0 1 -10.1-10.7c-.1 0-.1-.1-.2-.2a124 124 0 0 1 -15.8-23.5 120.4 120.4 0 0 0 -18.7 35.9c24.4-.3 42.6 4.2 55 9.3z"/><path d="m186.5 125.5a63.8 63.8 0 0 1 1.1 10.8 60.3 60.3 0 0 1 -5.7 25.9l-15.4 79.4a119.9 119.9 0 0 0 81.5-113.6c0-3.7-.2-7.4-.5-11-9.7 5.1-23.5 9.3-42.8 9.5a171.8 171.8 0 0 1 -18.2-1z"/><path d="m68.7 137.3a64.1 64.1 0 0 1 .9-10.9 184.2 184.2 0 0 1 -18.6 1.3c-19.1.1-32.9-3.8-42.6-8.7-.3 3-.4 6-.4 9a119.9 119.9 0 0 0 83.6 114.3l-17.4-80.5a59.4 59.4 0 0 1 -5.5-24.5z"/><path d="m187.2 99.5c12.4-5.1 30.4-9.9 54.5-9.9a119.6 119.6 0 0 0 -19.2-35.5 125.8 125.8 0 0 1 -25.5 34.7 139.4 139.4 0 0 0 -9.8 10.7z"/></svg>

<svg id="Layer_1" data-name="Layer 1" xmlns="http://www.w3.org/2000/svg" width="256" height="256" viewBox="0 0 256 256"><title>Artboard 10</title><path d="M103.3,190.8a63.4,63.4,0,0,1-11.7-7.2l9.6,44.8a186.8,186.8,0,0,0,2.2-31.7C103.4,194.7,103.3,192.7,103.3,190.8Z"/><path d="M115.1,182a48.2,48.2,0,0,0,26.8-.2,173.2,173.2,0,0,1,8.7-42.6,150.1,150.1,0,0,1,14.9-31,47,47,0,0,0-75.2.6,152.1,152.1,0,0,1,15.4,30.7A168.5,168.5,0,0,1,115.1,182Z"/><path d="M191.9,26.5l2.5,4.4c5.5,10.2,9.4,19.3,11.6,27.3a103.3,103.3,0,0,0,7.6-14.3A117.5,117.5,0,0,0,191.9,26.5Z"/><path d="M59.9,31.9c.8-1.4,1.5-2.9,2.3-4.2a117.6,117.6,0,0,0-21,17.5,110.5,110.5,0,0,0,7.6,13.9C50.9,51.1,54.6,42.1,59.9,31.9Z"/><path d="M83.4,16.6C76,27.5,59.4,55.5,59.1,72.7c2.5,2.8,5.1,5.6,8,8.3A150.5,150.5,0,0,1,82.8,98.3a59.5,59.5,0,0,1,90-.7A182.4,182.4,0,0,1,188.3,80c2.7-2.6,5.2-5.3,7.6-8-.3-17.2-17.7-45.4-25.3-56.2a120.1,120.1,0,0,0-87.2.8Z"/><path d="M147.7,246.4a206,206,0,0,1-6.3-49.7v-2a59.2,59.2,0,0,1-25.6.2v2a204,204,0,0,1-5.5,49.8A129.4,129.4,0,0,0,128,248,127.7,127.7,0,0,0,147.7,246.4Z"/><path d="M155,175.4a47,47,0,0,0,15-17.2v-.3a6.1,6.1,0,0,1,1.4-2.9,47.9,47.9,0,0,0,3.7-18.6,45,45,0,0,0-1.9-12.8l-2.2-.4a155.4,155.4,0,0,0-8.8,20A154,154,0,0,0,155,175.4Z"/><path d="M15.8,109c10,4.6,26.9,8.7,53.3,5.1-2.5-1.1-5.2-2.3-8.4-3.4-10.5-3.8-26.8-7.6-48.9-7.1a1.7,1.7,0,0,0-1.6,1.3h0a1.5,1.5,0,0,0,.8,1.6A43,43,0,0,0,15.8,109Z"/><path d="M186.4,113.2c17.2,2,37.1,1.7,53.2-5.9a40.3,40.3,0,0,0,5.1-2.8,1.5,1.5,0,0,0,.7-1.5h0a1.6,1.6,0,0,0-1.5-1.2C216.4,101.5,197.6,107.7,186.4,113.2Z"/><path d="M153.8,196.7a189.8,189.8,0,0,0,2.7,31.5l8.7-45a63.6,63.6,0,0,1-11.3,7.2C153.8,192.5,153.8,194.6,153.8,196.7Z"/><path d="M101.9,175.8A154.1,154.1,0,0,0,94,143.5a153.1,153.1,0,0,0-9.1-19.7l-2.1.4a46.4,46.4,0,0,0-1.7,13A47,47,0,0,0,101.9,175.8Z"/><path d="M68.7,100.7A147,147,0,0,0,58.5,89.9,126.8,126.8,0,0,1,48.4,79.2c-.1,0-.1-.1-.2-.2A124,124,0,0,1,32.4,55.5,120.4,120.4,0,0,0,13.7,91.4C38.1,91.1,56.3,95.6,68.7,100.7Z"/><path d="M186.5,125.5a63.8,63.8,0,0,1,1.1,10.8,60.3,60.3,0,0,1-5.7,25.9l-15.4,79.4A119.9,119.9,0,0,0,248,128c0-3.7-.2-7.4-.5-11-9.7,5.1-23.5,9.3-42.8,9.5A171.8,171.8,0,0,1,186.5,125.5Z"/><path d="M68.7,137.3a64.1,64.1,0,0,1,.9-10.9A184.2,184.2,0,0,1,51,127.7c-19.1.1-32.9-3.8-42.6-8.7-.3,3-.4,6-.4,9A119.9,119.9,0,0,0,91.6,242.3L74.2,161.8A59.4,59.4,0,0,1,68.7,137.3Z"/><path d="M187.2,99.5c12.4-5.1,30.4-9.9,54.5-9.9a119.6,119.6,0,0,0-19.2-35.5A125.8,125.8,0,0,1,197,88.8,139.4,139.4,0,0,0,187.2,99.5Z"/></svg>
